X:5
T:Final
B:Invitation a la Waltze
O:Wallonie
M:3/4
L:1/4
R:valse
Q:C8=30
K:C
G/G/ |: A G E | C2 G/G/ | A G F | D2 G/G/ |
A G E | C/B,/ C/E/ G/E/ | D/E/ F/D/ B,/D/ |1 C2 G/G/ :|2 C2 ||
